assets/icons/search-black.svg

<?xml version="1.0" encoding="UTF-8" standalone="no"?>
<svg width="89px" height="88px" viewBox="0 0 89 88" version="1.1" xmlns="http://www.w3.org/2000/svg" xmlns:xlink="http://www.w3.org/1999/xlink" xmlns:sketch="http://www.bohemiancoding.com/sketch/ns">
    <!-- Generator: Sketch 3.3.3 (12072) - http://www.bohemiancoding.com/sketch -->
    <title>search-black--backup</title>
    <desc>Created with Sketch.</desc>
    <defs></defs>
    <g id="Page-1" stroke="none" stroke-width="1" fill="none" fill-rule="evenodd" sketch:type="MSPage">
        <g id="search-black--backup" sketch:type="MSLayerGroup" fill="#000000">
            <path d="M35.5,71 C15.894,71 0,55.106 0,35.5 C0,15.894 15.894,0 35.5,0 C55.106,0 71,15.894 71,35.5 C71,42.091 69.204,48.263 66.074,53.553 L87.6460368,75.1250368 C88.4308131,75.9098131 88.437624,77.175376 87.6526896,77.9603104 L78.4603104,87.1526896 C77.6792083,87.9337917 76.4104558,87.9314558 75.6326381,87.1536381 L54.176,65.697 C48.751,69.058 42.352,71 35.5,71 Z M35,57 C47.15,57 57,47.15 57,35 C57,22.85 47.15,13 35,13 C22.85,13 13,22.85 13,35 C13,47.15 22.85,57 35,57 L35,57 Z" id="Shape" sketch:type="MSShapeGroup"></path>
        </g>
    </g>
</svg>

<svg width="90" height="89" viewBox="0 0 90 89" xmlns="http://www.w3.org/2000/svg" xmlns:sketch="http://www.bohemiancoding.com/sketch/ns"><title>Maginifing glass</title><desc>Created with Sketch Beta.</desc><path d="M54.176 65.696c-5.425 3.362-11.824 5.304-18.676 5.304-19.606 0-35.5-15.894-35.5-35.5s15.894-35.5 35.5-35.5 35.5 15.894 35.5 35.5c0 6.591-1.796 12.763-4.926 18.053l22.993 22.993-12.021 12.021-22.87-22.87zm-19.176-8.696c12.15 0 22-9.85 22-22s-9.85-22-22-22-22 9.85-22 22 9.85 22 22 22z" sketch:type="MSShapeGroup" fill="#000"/></svg>
